src/front_assets/svg/calendar.svg

<svg width="30" height="30" viewBox="0 0 30 30" fill="none" xmlns="http://www.w3.org/2000/svg">
<path d="M20.9375 4.45V2.5C20.9375 1.9875 20.5125 1.5625 20 1.5625C19.4875 1.5625 19.0625 1.9875 19.0625 2.5V4.375H10.9375V2.5C10.9375 1.9875 10.5125 1.5625 10 1.5625C9.4875 1.5625 9.0625 1.9875 9.0625 2.5V4.45C5.6875 4.7625 4.05 6.775 3.8 9.7625C3.775 10.125 4.075 10.425 4.425 10.425H25.575C25.9375 10.425 26.2375 10.1125 26.2 9.7625C25.95 6.775 24.3125 4.7625 20.9375 4.45Z" fill="url(#paint0_linear_26_25)"/>
<path d="M23.75 18.75C20.9875 18.75 18.75 20.9875 18.75 23.75C18.75 24.6875 19.0125 25.575 19.475 26.325C20.3375 27.775 21.925 28.75 23.75 28.75C25.575 28.75 27.1625 27.775 28.025 26.325C28.4875 25.575 28.75 24.6875 28.75 23.75C28.75 20.9875 26.5125 18.75 23.75 18.75ZM26.3375 23.2125L23.675 25.675C23.5 25.8375 23.2625 25.925 23.0375 25.925C22.8 25.925 22.5625 25.8375 22.375 25.65L21.1375 24.4125C20.775 24.05 20.775 23.45 21.1375 23.0875C21.5 22.725 22.1 22.725 22.4625 23.0875L23.0625 23.6875L25.0625 21.8375C25.4375 21.4875 26.0375 21.5125 26.3875 21.8875C26.7375 22.2625 26.7125 22.85 26.3375 23.2125Z" fill="url(#paint1_linear_26_25)"/>
<path d="M25 12.3H5C4.3125 12.3 3.75 12.8625 3.75 13.55V21.25C3.75 25 5.625 27.5 10 27.5H16.1625C17.025 27.5 17.625 26.6625 17.35 25.85C17.1 25.125 16.8875 24.325 16.8875 23.75C16.8875 19.9625 19.975 16.875 23.7625 16.875C24.125 16.875 24.4875 16.9 24.8375 16.9625C25.5875 17.075 26.2625 16.4875 26.2625 15.7375V13.5625C26.25 12.8625 25.6875 12.3 25 12.3ZM11.5125 22.7625C11.275 22.9875 10.95 23.125 10.625 23.125C10.3 23.125 9.975 22.9875 9.7375 22.7625C9.5125 22.525 9.375 22.2 9.375 21.875C9.375 21.55 9.5125 21.225 9.7375 20.9875C9.8625 20.875 9.9875 20.7875 10.15 20.725C10.6125 20.525 11.1625 20.6375 11.5125 20.9875C11.7375 21.225 11.875 21.55 11.875 21.875C11.875 22.2 11.7375 22.525 11.5125 22.7625ZM11.5125 18.3875C11.45 18.4375 11.3875 18.4875 11.325 18.5375C11.25 18.5875 11.175 18.625 11.1 18.65C11.025 18.6875 10.95 18.7125 10.875 18.725C10.7875 18.7375 10.7 18.75 10.625 18.75C10.3 18.75 9.975 18.6125 9.7375 18.3875C9.5125 18.15 9.375 17.825 9.375 17.5C9.375 17.175 9.5125 16.85 9.7375 16.6125C10.025 16.325 10.4625 16.1875 10.875 16.275C10.95 16.2875 11.025 16.3125 11.1 16.35C11.175 16.375 11.25 16.4125 11.325 16.4625C11.3875 16.5125 11.45 16.5625 11.5125 16.6125C11.7375 16.85 11.875 17.175 11.875 17.5C11.875 17.825 11.7375 18.15 11.5125 18.3875ZM15.8875 18.3875C15.65 18.6125 15.325 18.75 15 18.75C14.675 18.75 14.35 18.6125 14.1125 18.3875C13.8875 18.15 13.75 17.825 13.75 17.5C13.75 17.175 13.8875 16.85 14.1125 16.6125C14.5875 16.15 15.425 16.15 15.8875 16.6125C16.1125 16.85 16.25 17.175 16.25 17.5C16.25 17.825 16.1125 18.15 15.8875 18.3875Z" fill="url(#paint2_linear_26_25)"/>
<defs>
<linearGradient id="paint0_linear_26_25" x1="29.6045" y1="65.8977" x2="-26.0862" y2="54.743" gradientUnits="userSpaceOnUse">
<stop offset="0.25249" stop-color="#59A49E"/>
<stop offset="0.637527" stop-color="#A6D8D2"/>
</linearGradient>
<linearGradient id="paint1_linear_26_25" x1="30.2682" y1="91.3426" x2="4.57542" y2="89.3069" gradientUnits="userSpaceOnUse">
<stop offset="0.25249" stop-color="#59A49E"/>
<stop offset="0.637527" stop-color="#A6D8D2"/>
</linearGradient>
<linearGradient id="paint2_linear_26_25" x1="4.20025" y1="27.196" x2="30.4895" y2="-8.27953" gradientUnits="userSpaceOnUse">
<stop offset="0.138287" stop-color="#FFB23F"/>
<stop offset="0.467052" stop-color="#FAD8A5"/>
</linearGradient>
</defs>
</svg>

<svg xmlns="http://www.w3.org/2000/svg" width="30" height="30" fill="none"><path fill="url(#a)" d="M20.938 4.45V2.5A.944.944 0 0 0 20 1.563a.944.944 0 0 0-.937.937v1.875h-8.125V2.5A.944.944 0 0 0 10 1.563a.944.944 0 0 0-.937.937v1.95C5.687 4.763 4.05 6.775 3.8 9.762a.63.63 0 0 0 .625.663h21.15c.363 0 .663-.312.625-.663-.25-2.987-1.887-5-5.262-5.312"/><path fill="url(#b)" d="M23.75 18.75c-2.762 0-5 2.238-5 5 0 .938.262 1.825.725 2.575a4.96 4.96 0 0 0 4.275 2.425 4.96 4.96 0 0 0 4.275-2.425c.463-.75.725-1.637.725-2.575 0-2.762-2.238-5-5-5m2.587 4.462-2.662 2.463a.95.95 0 0 1-.637.25.93.93 0 0 1-.663-.275l-1.238-1.237a.943.943 0 0 1 0-1.326.943.943 0 0 1 1.325 0l.6.6 2-1.85a.944.944 0 0 1 1.325.05.944.944 0 0 1-.05 1.325"/><path fill="url(#c)" d="M25 12.3H5c-.687 0-1.25.563-1.25 1.25v7.7C3.75 25 5.625 27.5 10 27.5h6.163c.862 0 1.462-.837 1.187-1.65-.25-.725-.463-1.525-.463-2.1 0-3.788 3.088-6.875 6.875-6.875.363 0 .726.025 1.075.087a1.244 1.244 0 0 0 1.425-1.224v-2.175A1.275 1.275 0 0 0 25 12.3M11.513 22.762a1.31 1.31 0 0 1-.888.363c-.325 0-.65-.137-.887-.363a1.31 1.31 0 0 1-.363-.887c0-.325.137-.65.363-.887.125-.113.25-.2.412-.263a1.25 1.25 0 0 1 1.362.262c.226.238.363.563.363.888s-.137.65-.363.887m0-4.375-.188.15a1 1 0 0 1-.225.113.8.8 0 0 1-.225.075 2 2 0 0 1-.25.025c-.325 0-.65-.137-.887-.363a1.31 1.31 0 0 1-.363-.887c0-.325.137-.65.363-.887a1.26 1.26 0 0 1 1.137-.338q.112.02.225.075.112.038.225.112l.188.15c.225.238.362.563.362.888s-.137.65-.363.887m4.374 0a1.31 1.31 0 0 1-.887.363c-.325 0-.65-.137-.887-.363a1.31 1.31 0 0 1-.363-.887c0-.325.137-.65.363-.887.475-.463 1.312-.463 1.774 0 .226.237.363.562.363.887s-.137.65-.363.887"/><defs><linearGradient id="a" x1="29.605" x2="-26.086" y1="65.898" y2="54.743" gradientUnits="userSpaceOnUse"><stop offset=".252" stop-color="#59A49E"/><stop offset=".638" stop-color="#A6D8D2"/></linearGradient><linearGradient id="b" x1="30.268" x2="4.575" y1="91.343" y2="89.307" gradientUnits="userSpaceOnUse"><stop offset=".252" stop-color="#59A49E"/><stop offset=".638" stop-color="#A6D8D2"/></linearGradient><linearGradient id="c" x1="4.2" x2="30.489" y1="27.196" y2="-8.28" gradientUnits="userSpaceOnUse"><stop offset=".138" stop-color="#FFB23F"/><stop offset=".467" stop-color="#FAD8A5"/></linearGradient></defs></svg>
